static/front/images/dzen.svg

<svg width="400" height="125" viewBox="0 0 400 125" fill="none" xmlns="http://www.w3.org/2000/svg">
<mask id="mask0_1_193" style="mask-type:alpha" maskUnits="userSpaceOnUse" x="0" y="0" width="120" height="120">
<path d="M0 60C0 26.8629 26.8629 0 60 0C93.1371 0 120 26.8629 120 60C120 93.1371 93.1371 120 60 120C26.8629 120 0 93.1371 0 60Z" fill="black"/>
</mask>
<g mask="url(#mask0_1_193)">
<path d="M0 60C0 26.8629 26.8629 0 60 0C93.1371 0 120 26.8629 120 60C120 93.1371 93.1371 120 60 120C26.8629 120 0 93.1371 0 60Z" fill="black"/>
<path fill-rule="evenodd" clip-rule="evenodd" d="M58.202 0C57.8998 24.3232 56.2395 37.994 47.1168 47.1167C37.994 56.2394 24.3232 57.8998 0 58.2019V61.798C24.3232 62.1002 37.9941 63.7605 47.1168 72.8833C56.2395 82.006 57.8998 95.6768 58.202 120H61.798C62.1002 95.6768 63.7606 82.006 72.8833 72.8832C82.006 63.7605 95.6768 62.1002 120 61.798V58.2019C95.6768 57.8997 82.006 56.2394 72.8832 47.1167C63.7605 37.994 62.1002 24.3231 61.798 0H58.202Z" fill="white"/>
</g>
<path d="M161.389 123.85V105H209.749V123.85H224.439V92.78H215.989V14.65H160.739L159.179 59.5C158.659 74.06 157.099 85.89 152.939 92.78H146.699V123.85H161.389ZM172.959 61.58L174.129 26.87H200.259V92.78H167.759C170.489 86.67 172.439 76.14 172.959 61.58Z" fill="black"/>
<path d="M250.835 94.08C242.905 94.08 235.105 91.22 230.945 88.1V100.71C233.935 103.18 241.475 106.3 252.655 106.3C269.165 106.3 277.875 98.89 277.875 85.76C277.875 78.09 273.065 72.89 264.485 71.07C272.545 68.47 275.925 62.75 275.925 55.47C275.925 44.42 267.215 38.31 253.175 38.31C243.035 38.31 236.405 41.43 232.635 43.77V56.38C236.795 53.65 242.515 50.53 250.965 50.53C256.685 50.53 260.325 53.26 260.325 58.07C260.325 63.14 257.205 65.87 250.835 65.87H241.085V77.57H250.835C258.765 77.57 261.885 79.91 261.885 85.63C261.885 90.83 258.115 94.08 250.835 94.08Z" fill="black"/>
<path d="M336.407 100.58V87.97C331.597 91.22 323.537 94.08 315.997 94.08C304.687 94.08 300.397 88.75 299.747 77.83H337.057V69.64C337.057 46.89 327.047 38.31 311.577 38.31C292.727 38.31 283.757 52.74 283.757 72.5C283.757 95.25 294.937 106.3 314.697 106.3C324.577 106.3 331.857 103.7 336.407 100.58ZM311.317 50.53C318.987 50.53 321.327 56.9 321.327 65.09V66.39H299.747C300.137 55.99 303.907 50.53 311.317 50.53Z" fill="black"/>
<path d="M383.562 39.61V65.48H362.892V39.61H347.422V105H362.892V77.7H383.562V105H399.032V39.61H383.562Z" fill="black"/>
</svg>

<svg width="400" height="125" fill="none" xmlns="http://www.w3.org/2000/svg"><mask id="a" style="mask-type:alpha" maskUnits="userSpaceOnUse" x="0" y="0" width="120" height="120"><path d="M0 60C0 26.863 26.863 0 60 0s60 26.863 60 60-26.863 60-60 60S0 93.137 0 60Z" fill="#000"/></mask><g mask="url(#a)"><path d="M0 60C0 26.863 26.863 0 60 0s60 26.863 60 60-26.863 60-60 60S0 93.137 0 60Z" fill="#000"/><path fill-rule="evenodd" clip-rule="evenodd" d="M58.202 0C57.9 24.323 56.24 37.994 47.117 47.117 37.994 56.239 24.323 57.9 0 58.202v3.596c24.323.302 37.994 1.962 47.117 11.085C56.24 82.006 57.9 95.677 58.202 120h3.596c.302-24.323 1.963-37.994 11.085-47.117C82.006 63.761 95.677 62.1 120 61.798v-3.596c-24.323-.302-37.994-1.963-47.117-11.085C63.761 37.994 62.1 24.323 61.798 0h-3.596Z" fill="#fff"/></g><path d="M161.389 123.85V105h48.36v18.85h14.69V92.78h-8.45V14.65h-55.25l-1.56 44.85c-.52 14.56-2.08 26.39-6.24 33.28h-6.24v31.07h14.69Zm11.57-62.27 1.17-34.71h26.13v65.91h-32.5c2.73-6.11 4.68-16.64 5.2-31.2ZM250.835 94.08c-7.93 0-15.73-2.86-19.89-5.98v12.61c2.99 2.47 10.53 5.59 21.71 5.59 16.51 0 25.22-7.41 25.22-20.54 0-7.67-4.81-12.87-13.39-14.69 8.06-2.6 11.44-8.32 11.44-15.6 0-11.05-8.71-17.16-22.75-17.16-10.14 0-16.77 3.12-20.54 5.46v12.61c4.16-2.73 9.88-5.85 18.33-5.85 5.72 0 9.36 2.73 9.36 7.54 0 5.07-3.12 7.8-9.49 7.8h-9.75v11.7h9.75c7.93 0 11.05 2.34 11.05 8.06 0 5.2-3.77 8.45-11.05 8.45ZM336.407 100.58V87.97c-4.81 3.25-12.87 6.11-20.41 6.11-11.31 0-15.6-5.33-16.25-16.25h37.31v-8.19c0-22.75-10.01-31.33-25.48-31.33-18.85 0-27.82 14.43-27.82 34.19 0 22.75 11.18 33.8 30.94 33.8 9.88 0 17.16-2.6 21.71-5.72Zm-25.09-50.05c7.67 0 10.01 6.37 10.01 14.56v1.3h-21.58c.39-10.4 4.16-15.86 11.57-15.86ZM383.562 39.61v25.87h-20.67V39.61h-15.47V105h15.47V77.7h20.67V105h15.47V39.61h-15.47Z" fill="#000"/></svg>
